X: 198
T: Tous les regretz
N: Derived from Rue3022-Tous_les_regretz.krn
C: Pierre de la Rue
%%abc-version 2.0
%%abcx-abcm2ps-target-version 5.9.1 (29 Sep 2008)
%%abc-creator hum2abc beta
%%abcx-conversion-date 2019/02/17 08:01:18
%%abc-edited-by Jesse Rodin
%%abc-edited-by Chris Gage 06-17-2013
%%abcx-initial-encoding-date 2013/08/08/
%%humdrum-veritas 2860234425
%%humdrum-veritas-data 605979603
%%linebreak <none>
%%barnumbers 0
L: 1/4
M: 2/1
Q: 1/2=120
%%staves [1 2 3 4]
V: 1 clef=treble
V: 2 clef=treble-8
V: 3 clef=treble-8
V: 4 clef=bass
K: C
[V:1] z8 | 
[V:2] d8 | 
[V:3] z8 | 
[V:4] z8 | 
[V:1] z8 | 
[V:2] d4d2cB | 
[V:3] z8 | 
[V:4] z8 | 
[V:1] A8 | 
[V:2] d2c2cBAG | 
[V:3] z8 | 
[V:4] z8 | 
[V:1] A4A2GF | 
[V:2] F2f4ed | 
[V:3] z8 | 
[V:4] D,8 | 
[V:1] A2G2GFED | 
[V:2] f2e2c3d | 
[V:3] z8 | 
[V:4] C,4C,4 | 
[V:1] C8 | 
[V:2] e4e4 | 
[V:3] A8 | 
[V:4] A,,2C,2C,B,,A,,G,, | 
[V:1] z4c4 | 
[V:2] f8 | 
[V:3] A4A2GF | 
[V:4] F,,8 | 
[V:1] c4c4 | 
[V:2] e4c4- | 
[V:3] A2G2GFED | 
[V:4] z2C,2C,4 | 
[V:1] c4B4 | 
[V:2] c2BAG4 | 
[V:3] C2F4E2 | 
[V:4] A,,2F,,2G,,4 | 
[V:1] A2A4GF | 
[V:2] A4FGAB | 
[V:3] F4c4 | 
[V:4] F,,8 | 
[V:1] A2G3FED | 
[V:2] cde3dcB | 
[V:3] c4c4 | 
[V:4] z8 | 
[V:1] C2F4E2 | 
[V:2] A2F2G4 | 
[V:3] c4B4 | 
[V:4] z8 | 
[V:1] F4C4 | 
[V:2] F2f2e2c2- | 
[V:3] A8 | 
[V:4] z4A,,4 | 
[V:1] D4D4 | 
[V:2] c2BAB4 | 
[V:3] z8 | 
[V:4] D,4D,4 | 
[V:1] E8- | 
[V:2] c4E3F | 
[V:3] z8 | 
[V:4] C,8 | 
[V:1] E8 | 
[V:2] G2A3Bc2- | 
[V:3] z8 | 
[V:4] z4C,4 | 
[V:1] z8 | 
[V:2] c2B4A2- | 
[V:3] z4A4 | 
[V:4] D,4C,4 | 
[V:1] z8 | 
[V:2] A2^G^F^G4 | 
[V:3] d4d4 | 
[V:4] B,,4B,,4 | 
[V:1] z4E3F | 
[V:2] A8 | 
[V:3] c8 | 
[V:4] A,,8 | 
[V:1] G2A3Bc2- | 
[V:2] z8 | 
[V:3] z4c4 | 
[V:4] z8 | 
[V:1] c2B4A2- | 
[V:2] z8 | 
[V:3] d4c4 | 
[V:4] z8 | 
[V:1] A2^G^FG4 | 
[V:2] z4d4 | 
[V:3] B4B4 | 
[V:4] z8 | 
[V:1] A8 | 
[V:2] f2f2e4 | 
[V:3] A8 | 
[V:4] z2D,2D,2C,2 | 
[V:1] z4A4 | 
[V:2] d2f4ed | 
[V:3] z8 | 
[V:4] F,3E,D,2C,B,, | 
[V:1] c2c2B4 | 
[V:2] c3de4 | 
[V:3] z2A2A2G2 | 
[V:4] A,,4E,,4 | 
[V:1] z2A2A2G2 | 
[V:2] E8 | 
[V:3] c4B4 | 
[V:4] z2A,,2E,,2E,,2 | 
[V:1] A2c4BA | 
[V:2] z2F4ED | 
[V:3] z2A2A2G2 | 
[V:4] A,,4F,,2G,,2 | 
[V:1] B2A4^G2 | 
[V:2] F2E2e4 | 
[V:3] c2c2B4 | 
[V:4] A,,4E,,4 | 
[V:1] A4F4 | 
[V:2] c4d4 | 
[V:3] A8- | 
[V:4] z2F,,4E,,D,, | 
[V:1] E2F4ED | 
[V:2] cBAGF3E | 
[V:3] A8- | 
[V:4] A,,4D,,4 | 
[V:1] !fermata!C8 | 
[V:2] !fermata!E8 | 
[V:3] !fermata!A8 | 
[V:4] !fermata!A,,8 | 
[V:1] z4E4 | 
[V:2] z4c4 | 
[V:3] z4A4- | 
[V:4] z4A,,4 | 
[V:1] E4G4 | 
[V:2] c4d4 | 
[V:3] A4B4 | 
[V:4] A,,4G,,4 | 
[V:1] A8 | 
[V:2] f3ec2d2 | 
[V:3] A4A2A2- | 
[V:4] F,,2F,,4E,,D,, | 
[V:1] A4A2A2- | 
[V:2] e2A4GF | 
[V:3] A2GFc4- | 
[V:4] A,,8 | 
[V:1] A2GFc4- | 
[V:2] E2F4ED | 
[V:3] c2B2A4 | 
[V:4] z4A,,4 | 
[V:1] c2B2A4 | 
[V:2] E4F4 | 
[V:3] G4z2c2- | 
[V:4] C,4F,,4 | 
[V:1] G4z2c2- | 
[V:2] G4F4 | 
[V:3] c2B4A2- | 
[V:4] E,,4F,,4 | 
[V:1] c2B4A2- | 
[V:2] z4F4 | 
[V:3] A2G2A4 | 
[V:4] E,,4F,,4 | 
[V:1] A2G2A4 | 
[V:2] G4F2ED | 
[V:3] B4A4 | 
[V:4] z2E,,2F,,3G,, | 
[V:1] z4A4- | 
[V:2] C2D2A4 | 
[V:3] z2F4E2- | 
[V:4] A,,2D,,4C,,2 | 
[V:1] A4A4- | 
[V:2] z2f4e2- | 
[V:3] EDD4C2 | 
[V:4] D,,4A,,4 | 
[V:1] A4A4 | 
[V:2] e2d4^c2 | 
[V:3] D4E4 | 
[V:4] D,,4A,,4 | 
[V:1] F8 | 
[V:2] d8 | 
[V:3] D8 | 
[V:4] _B,,6A,,2 | 
[V:1] G4A2c2- | 
[V:2] B4A4 | 
[V:3] z4F4- | 
[V:4] G,,4F,,2A,,2- | 
[V:1] cBA2G4 | 
[V:2] c8- | 
[V:3] F4G4 | 
[V:4] A,,G,,F,,4E,,2 | 
[V:1] z2c3BA2 | 
[V:2] c8 | 
[V:3] A4z2c2- | 
[V:4] F,,4z2F,,2 | 
[V:1] G2F3EE2 | 
[V:2] z2c2c3B | 
[V:3] cBA2G4 | 
[V:4] E,,F,,3C,4 | 
[V:1] F2D2E2F2- | 
[V:2] c2d2c2A2 | 
[V:3] F4z4 | 
[V:4] F,,2_B,,2C,2D,2 | 
[V:1] F2D2E2F2- | 
[V:2] _B4G2F2 | 
[V:3] F4E2A2- | 
[V:4] _B,,4C,2D,2 | 
[V:1] F2EDC4 | 
[V:2] D4A4 | 
[V:3] AGG3EF2 | 
[V:4] _B,,4A,,4 | 
[V:1] z2D2E2G2- | 
[V:2] _B8 | 
[V:3] G2D2G3F | 
[V:4] G,,8 | 
[V:1] GFEDD3^C | 
[V:2] A8 | 
[V:3] EDF2E4 | 
[V:4] A,,8 | 
[V:1] D8 |]  
[V:2] A8 |]  
[V:3] D8 |]  
[V:4] D,,8 |]  



